src/pages/screens/Discuss/images/Compass.svg

<svg width="52" height="51" viewBox="0 0 52 51" fill="none" xmlns="http://www.w3.org/2000/svg">
<g opacity="0.7">
<path d="M20.8622 22.007C20.8126 20.1374 20.8509 18.2471 20.9008 16.8373C22.1707 17.4998 23.859 18.4124 25.485 19.3894C26.663 20.0971 27.782 20.823 28.6769 21.4994C29.6224 22.2141 30.1456 22.7482 30.3241 23.0514C30.5026 23.3546 30.7127 24.0662 30.871 25.2265C31.0208 26.3248 31.1023 27.6383 31.1382 28.9927C31.1879 30.8622 31.1496 32.7526 31.0996 34.1624C29.8298 33.4999 28.1415 32.5873 26.5154 31.6103C25.3375 30.9026 24.2184 30.1767 23.3235 29.5002C22.3781 28.7856 21.8548 28.2514 21.6763 27.9482C21.4979 27.645 21.2878 26.9335 21.1295 25.7732C20.9797 24.6748 20.8982 23.3614 20.8622 22.007Z" stroke="white" stroke-width="3"/>
<ellipse cx="26" cy="25.5" rx="19.5" ry="19.125" stroke="white" stroke-width="3"/>
</g>
</svg>

<svg width="52" height="51" fill="none" xmlns="http://www.w3.org/2000/svg"><g opacity=".7" stroke="#fff" stroke-width="3"><path d="M20.862 22.007a86.19 86.19 0 0 1 .039-5.17 89.96 89.96 0 0 1 4.584 2.552c1.178.708 2.297 1.434 3.192 2.11.945.715 1.469 1.25 1.647 1.552.179.304.389 1.015.547 2.176.15 1.098.231 2.411.267 3.766.05 1.87.012 3.76-.038 5.17a90.046 90.046 0 0 1-4.585-2.553c-1.178-.707-2.297-1.433-3.192-2.11-.945-.714-1.468-1.249-1.647-1.552-.178-.303-.388-1.015-.546-2.175-.15-1.098-.232-2.412-.268-3.766z"/><ellipse cx="26" cy="25.5" rx="19.5" ry="19.125"/></g></svg>
